X:595
T:Pat Tuohy's reel
C:anon.
O:Ireland
B:Francis O'Neill: "The Dance Music of Ireland" (1907) no. 595
R:Reel
M:C|
L:1/8
K:Em
B>(E ({F}(3E)DE) BAFE|D2 (FD) ADFD|B>(E ({F}(3E)DE) BAFA|[1 (3Bcd eg fde=c:|[2 (3Bcd eg fee2||e2 (ge) Bege|
defg agfg|e2(ge) Bege|defa gee2|e2 (ge) Bege|defg a2ga|(3bag (af) gefe|(3cde fa gee2|]
